Unicodia/Resources/Scripts/FE00.svg

<?xml version="1.0" encoding="UTF-8" standalone="no"?>
<!-- Created with Inkscape (http://www.inkscape.org/) -->

<svg
   width="16"
   height="16"
   viewBox="0 0 16 16"
   version="1.1"
   id="svg5"
   inkscape:version="1.2.2 (732a01da63, 2022-12-09)"
   sodipodi:docname="VS.svg"
   inkscape:export-filename="../FE00.png"
   inkscape:export-xdpi="96"
   inkscape:export-ydpi="96"
   xmlns:inkscape="http://www.inkscape.org/namespaces/inkscape"
   xmlns:sodipodi="http://sodipodi.sourceforge.net/DTD/sodipodi-0.dtd"
   xmlns="http://www.w3.org/2000/svg"
   xmlns:svg="http://www.w3.org/2000/svg">
  <sodipodi:namedview
     id="namedview7"
     pagecolor="#ffffff"
     bordercolor="#666666"
     borderopacity="1.0"
     inkscape:pageshadow="2"
     inkscape:pageopacity="0"
     inkscape:pagecheckerboard="0"
     inkscape:document-units="px"
     showgrid="true"
     inkscape:zoom="33.322407"
     inkscape:cx="3.136028"
     inkscape:cy="7.2923904"
     inkscape:window-width="1680"
     inkscape:window-height="998"
     inkscape:window-x="-8"
     inkscape:window-y="-8"
     inkscape:window-maximized="1"
     inkscape:current-layer="layer1"
     inkscape:snap-global="true"
     inkscape:snap-bbox="false"
     inkscape:bbox-nodes="true"
     inkscape:snap-text-baseline="true"
     inkscape:showpageshadow="2"
     inkscape:deskcolor="#d1d1d1">
    <inkscape:grid
       type="xygrid"
       id="grid824" />
  </sodipodi:namedview>
  <defs
     id="defs2" />
  <g
     inkscape:label="Layer 1"
     inkscape:groupmode="layer"
     id="layer1">
    <path
       d="m 5.5999626,9.348018 0.2010447,1.17194 h 0.022339 L 6.0467286,9.3261126 7.4987181,4.1016708 H 8.3587427 L 5.9908828,11.889047 H 5.5441168 L 3.1427495,4.1016708 H 4.069789 Z"
       style="font-stretch:condensed;font-size:11.0604px;line-height:1.25;font-family:'PT Sans Narrow';-inkscape-font-specification:'PT Sans Narrow Condensed';text-align:center;letter-spacing:0px;word-spacing:0px;text-anchor:middle;fill:#7fff2a;stroke:#7fff2a;stroke-width:0.2"
       id="path2240" />
    <path
       d="m 8.9953769,10.749965 q 0.2122138,0.142385 0.5919649,0.273817 0.3909203,0.12048 0.8823632,0.12048 0.625472,0 1.016392,-0.295723 0.390921,-0.306676 0.390921,-0.9528856 0,-0.4271556 -0.223383,-0.7447841 Q 11.430252,8.8332407 11.095177,8.5703757 10.760103,8.296558 10.369182,8.0446457 9.9894312,7.7817807 9.6543567,7.4751049 9.3192822,7.1574764 9.0958992,6.7522262 8.8725162,6.346976 8.8725162,5.7774351 q 0,-0.9200274 0.5584575,-1.3581358 0.5696263,-0.449061 1.4743273,-0.449061 0.558458,0 0.994055,0.098575 0.435596,0.098575 0.703656,0.2519122 l -0.26806,0.7228788 q -0.201044,-0.1204802 -0.580795,-0.2190546 -0.368582,-0.098574 -0.860024,-0.098574 -0.603135,0 -0.893533,0.2957231 -0.2903975,0.2847704 -0.2903975,0.7228787 0,0.3833448 0.223383,0.6790679 0.2233825,0.2957231 0.5584575,0.5585881 0.335074,0.262865 0.714826,0.5366827 0.39092,0.262865 0.725994,0.5914463 0.335075,0.3285812 0.558458,0.7447841 0.223383,0.416203 0.223383,0.9857438 0,0.9638381 -0.580796,1.5114741 -0.580796,0.547635 -1.641865,0.547635 -0.670149,0 -1.1057459,-0.120479 Q 8.9618694,11.659039 8.704979,11.505702 Z"
       style="font-stretch:condensed;font-size:11.0604px;line-height:1.25;font-family:'PT Sans Narrow';-inkscape-font-specification:'PT Sans Narrow Condensed';text-align:center;letter-spacing:0px;word-spacing:0px;text-anchor:middle;fill:#7fff2a;stroke:#7fff2a;stroke-width:0.2"
       id="path2242" />
  </g>
</svg>

<svg height="16" viewBox="0 0 16 16" width="16" xmlns="http://www.w3.org/2000/svg"><path d="m0 0h16v16h-16z" fill="#250" stroke-linecap="round" stroke-linejoin="round" stroke-width="1.2"/><path d="m1 3h1v1h-1zm0 2h1v1h-1zm0 2h1v1h-1zm0 2h1v1h-1zm0 2h1v1h-1zm0 2h1v1h-1zm1 1h1v1h-1zm2 0h1v1h-1zm2 0h1v1h-1zm2 0h1v1h-1zm2 0h1v1h-1zm2 0h1v1h-1zm2 0h1v1h-1zm0-2h1v1h-1zm0-2h1v1h-1zm0-2h1v1h-1zm0-2h1v1h-1zm0-2h1v1h-1zm0-2h1v1h-1zm-1-1h1v1h-1zm-2 0h1v1h-1zm-2 0h1v1h-1zm-2 0h1v1h-1zm-2 0h1v1h-1zm-2 0h1v1h-1zm-2 0h1v1h-1z" fill="#6f0" stroke-linecap="round" stroke-linejoin="round" stroke-width="100"/><g fill="#7fff2a" stroke="#7fff2a" stroke-width=".2"><path d="m5.6 9.35.2 1.17h.02l.23-1.19 1.45-5.23h.86l-2.37 7.79h-.45l-2.4-7.79h.93z"/><path d="m9 10.75q.21.14.59.27.39.12.88.12.63 0 1.02-.3.39-.31.39-.95 0-.43-.22-.74-.23-.32-.56-.58-.34-.27-.73-.53-.38-.26-.72-.56-.33-.32-.55-.73-.23-.4-.23-.97 0-.92.56-1.36.57-.45 1.47-.45.56 0 .99.1.44.1.7.25l-.27.72q-.2-.12-.58-.22-.37-.1-.86-.1-.6 0-.89.3-.29.28-.29.72 0 .38.22.68.22.3.56.56.34.26.71.54.39.26.73.59.34.33.56.74.22.42.22.99 0 .96-.58 1.51-.58.55-1.64.55-.67 0-1.11-.12-.41-.12-.67-.27z"/></g></svg>
